static/assets/images/tokens/r.svg

<svg width="256" height="256" viewBox="0 0 256 256" fill="none" xmlns="http://www.w3.org/2000/svg">
<path d="M128 256C198.692 256 256 198.692 256 128C256 57.3075 198.692 0 128 0C57.3075 0 0 57.3075 0 128C0 198.692 57.3075 256 128 256Z" fill="white"/>
<path d="M208.315 184.229C200.217 193.485 190.833 198.112 180.163 198.112C168.98 198.112 159.531 194.063 151.818 185.965C144.234 177.866 138.064 165.397 133.307 148.557L130.222 138.916H102.649V179.409H126.945V195.413H57.9141V179.602H82.788V79.141H57.9141V63.1367H134.658C149.698 63.1367 161.588 66.5433 170.33 73.3563C179.07 80.1696 183.442 89.4248 183.442 101.122C183.442 110.764 180.292 118.926 173.993 125.611C167.822 132.167 159.082 136.281 147.77 137.952L151.24 147.4C155.225 158.712 159.66 166.939 164.545 172.082C169.43 177.223 174.957 179.794 181.127 179.794C184.984 179.794 188.262 179.023 190.962 177.48C193.661 175.938 196.167 173.881 198.482 171.31L208.315 184.229ZM102.649 123.876H135.236C143.463 123.876 150.276 121.883 155.675 117.898C161.074 113.785 163.774 108.193 163.774 101.122C163.774 94.3096 161.074 88.9752 155.675 85.1184C150.405 81.1336 143.591 79.141 135.236 79.141H102.649V123.876Z" fill="url(#paint0_linear_4193_3725)"/>
<defs>
<linearGradient id="paint0_linear_4193_3725" x1="57.914" y1="63.1367" x2="192.337" y2="210.526" gradientUnits="userSpaceOnUse">
<stop stop-color="#FF4A07"/>
<stop offset="0.270833" stop-color="#FF5411"/>
<stop offset="0.501659" stop-color="#FF671B"/>
<stop offset="0.695754" stop-color="#FF7824"/>
<stop offset="1" stop-color="#FF722B"/>
</linearGradient>
</defs>
</svg>

<svg xmlns="http://www.w3.org/2000/svg" fill="none" viewBox="0 0 256 256"><path fill="#fff" d="M128 256c70.692 0 128-57.308 128-128S198.692 0 128 0 0 57.308 0 128s57.308 128 128 128"/><path fill="url(#paint0_linear_4193_3725)" d="M208.315 184.229q-12.147 13.883-28.152 13.883-16.775 0-28.345-12.147-11.376-12.148-18.511-37.408l-3.085-9.641h-27.573v40.493h24.296v16.004h-69.03v-15.811h24.873V79.141H57.914V63.137h76.744q22.56 0 35.672 10.22t13.112 27.765q0 14.462-9.449 24.489-9.256 9.834-26.223 12.341l3.47 9.448q5.978 16.968 13.305 24.682 7.327 7.712 16.582 7.712 5.785 0 9.835-2.314 4.048-2.313 7.52-6.17zm-105.666-60.353h32.587q12.34 0 20.439-5.978 8.099-6.17 8.099-16.776 0-10.218-8.099-16.004-7.906-5.976-20.439-5.977h-32.587z"/><defs><linearGradient id="paint0_linear_4193_3725" x1="57.914" x2="192.337" y1="63.137" y2="210.526" gradientUnits="userSpaceOnUse"><stop stop-color="#FF4A07"/><stop offset=".271" stop-color="#FF5411"/><stop offset=".502" stop-color="#FF671B"/><stop offset=".696" stop-color="#FF7824"/><stop offset="1" stop-color="#FF722B"/></linearGradient></defs></svg>
